X:1
T: Miss Jessy Cumings' Strathspey
C:R. Mackintosh
R:Strathspey
Q: 128
K:D
M:4/4
L:1/16
|:d2|A3F Dd3 A3F DB3|A3F GFED E2e2 e2fg|af3 ge3 fd3 ec3|d3B AF3 Ad3 d2d2|
A3F Dd3 A3F DB3|A3F GFED E2e2 e2fg|af3 ge3 fd3 ec3|d3B AF3 Ad3 d2g2|
fa3 da3 ca3 Aa3|fa3 df3 g2e2 e2fg|fa3 da3 ca3 Ag3|f3d fedc dD3 D2g2|
fa3 da3 ca3 Aa3|fa3 df3 g2e2 e2fg|fd3 ec3 d3B AF3|G3B AF3 Dd3 d2:|
